material/.icons/material/folder-text-outline.svg

<svg xmlns="http://www.w3.org/2000/svg" viewBox="0 0 24 24"><path d="M20 18H4V8h16m0-2h-8l-2-2H4a2 2 0 00-2 2v12a2 2 0 002 2h16a2 2 0 002-2V8a2 2 0 00-2-2m-5 10H6v-2h9v2m3-4H6v-2h12v2z"/></svg>

<?xml version="1.0" encoding="UTF-8"?><!DOCTYPE svg PUBLIC "-//W3C//DTD SVG 1.1//EN" "http://www.w3.org/Graphics/SVG/1.1/DTD/svg11.dtd"><svg xmlns="http://www.w3.org/2000/svg" xmlns:xlink="http://www.w3.org/1999/xlink" version="1.1" id="mdi-folder-text-outline" width="24" height="24" viewBox="0 0 24 24"><path d="M20,18H4V8H20M20,6H12L10,4H4A2,2 0 0,0 2,6V18A2,2 0 0,0 4,20H20A2,2 0 0,0 22,18V8A2,2 0 0,0 20,6M15,16H6V14H15V16M18,12H6V10H18V12Z" /></svg>
